X:1
T: La Nouvelle Anglaise
N:24 October 1997
C:
S:
A:
O:
R:
M:4/4
K:G
I:speed 212
%W:
% voice 1 (1 lines, 28 notes)
K:G
M:4/4
L:1/16
D2 |G4 B2 d2 c2 A2 F2 D2 |G2 B2 d2 g2 d4 c2 B2 |c2 e2 A2 c2 B2 d2 G2 B2 |A2 c2 D2 F2 G8 |
%W:
% voice 1 (1 lines, 27 notes)
G4 B2 d2 c2 A2 F2 D2 |G2 B2 d2 g2 d4 c2 B2 |c2 e2 A2 c2 B2 d2 G2 B2 |A2 c2 D2 F2 G6 |
%W:
% voice 1 (1 lines, 29 notes)
z2 |g2 b2 e2 g2 f2 a2 d2 f2 |e2 g2 c2 e2 d4 c2 B2 |c2 e2 A2 c2 B2 d2 G2 B2 |A2 c2 D2 F2 G8 |
%W:
% voice 1 (1 lines, 28 notes)
g2 b2 e2 g2 f2 a2 d2 f2 |e2 g2 c2 e2 d4 c2 B2 |c2 e2 A2 c2 B2 d2 G2 B2 |A2 c2 D2 F2 G6 ||
